icon/ir/scale-frame-reduce.svg

<svg stroke-width="1.5" viewBox="0 0 24 24" fill="none" xmlns="http://www.w3.org/2000/svg" height="1em" width="1em">
  <path d="M11 15V13.6C11 13.2686 10.7314 13 10.4 13H9" stroke="currentColor" stroke-linecap="round" stroke-linejoin="round"/>
  <path d="M6 13H3" stroke="currentColor" stroke-linecap="round" stroke-linejoin="round"/>
  <path d="M11 18V21" stroke="currentColor" stroke-linecap="round" stroke-linejoin="round"/>
  <path d="M20.4 3H3.6C3.26863 3 3 3.26863 3 3.6V20.4C3 20.7314 3.26863 21 3.6 21H20.4C20.7314 21 21 20.7314 21 20.4V3.6C21 3.26863 20.7314 3 20.4 3Z" stroke="currentColor" stroke-width="1.4992" stroke-miterlimit="1.5" stroke-linecap="round" stroke-linejoin="round"/>
  <path d="M16 11H13V8" stroke="currentColor" stroke-linecap="round" stroke-linejoin="round"/>
</svg>

<svg width="24" height="24" stroke-width="1.5" fill="none" xmlns="http://www.w3.org/2000/svg"><path d="M11 15v-1.4a.6.6 0 0 0-.6-.6H9M6 13H3M11 18v3" stroke="currentColor" stroke-linecap="round" stroke-linejoin="round"/><path d="M20.4 3H3.6a.6.6 0 0 0-.6.6v16.8a.6.6 0 0 0 .6.6h16.8a.6.6 0 0 0 .6-.6V3.6a.6.6 0 0 0-.6-.6Z" stroke="currentColor" stroke-width="1.499" stroke-miterlimit="1.5" stroke-linecap="round" stroke-linejoin="round"/><path d="M16 11h-3V8" stroke="currentColor" stroke-linecap="round" stroke-linejoin="round"/></svg>
